Origami/48x48/apps/boinc.svg

<svg width="48" height="48" version="1" xmlns="http://www.w3.org/2000/svg">
 <path d="m4.0118 24.5c-0.0041 0.167-0.0117 0.332-0.0117 0.5 0 11.08 8.92 20 20 20s20-8.92 20-20c0-0.168-8e-3 -0.333-0.012-0.5-0.264 10.846-9.076 19.5-19.988 19.5s-19.724-8.654-19.988-19.5z" opacity=".2"/>
 <path d="m24 4c-11.08 0-20 8.92-20 20s8.92 20 20 20 20-8.92 20-20-8.92-20-20-20z" style="fill:#154277"/>
 <path d="m35.681641 8.7675781l-3.021485 5.2343749-2.033203 3.521485a10 10 0 0 1 3.373047 7.476562 10 10 0 0 1 -0.523438 3.162109l3.517579 2.03125a14 14 0 0 0 1.005859 -5.193359 14 14 0 0 0 -2.480469 -7.949219l3.214844-5.568359c-0.922498-1.005564-1.942254-1.9158595-3.052734-2.7148439zm-25.199219 1.4980469c-1.0055642 0.922498-1.9158595 1.942254-2.7148439 3.052734l5.2343749 3.021485 3.521485 2.033203a10 10 0 0 1 7.476562 -3.373047 10 10 0 0 1 3.162109 0.523438l2.03125-3.517579a14 14 0 0 0 -5.193359 -1.005859 14 14 0 0 0 -7.949219 2.480469l-5.568359-3.214844zm0.523437 9.541016a14 14 0 0 0 -1.005859 5.193359 14 14 0 0 0 2.480469 7.949219l-2.8613284 4.955078c0.9434064 0.975773 1.9780754 1.861546 3.1035154 2.628906l2.617188-4.535156 2.033203-3.521485a10 10 0 0 1 -3.373047 -7.476562 10 10 0 0 1 0.523438 -3.162109l-3.517579-2.03125zm20.470703 11.820312a10 10 0 0 1 -7.476562 3.373047 10 10 0 0 1 -3.162109 -0.523438l-2.03125 3.517579a14 14 0 0 0 5.193359 1.005859 14 14 0 0 0 7.949219 -2.480469l4.894531 2.826172c1.057048-0.884623 2.011571-1.881538 2.865234-2.964844l-4.710937-2.720703-3.521485-2.033203z" style="opacity:.2"/>
 <path d="m35.681641 7.7675781l-3.021485 5.2343749-2.033203 3.521485a10 10 0 0 1 3.373047 7.476562 10 10 0 0 1 -0.523438 3.162109l3.517579 2.03125a14 14 0 0 0 1.005859 -5.193359 14 14 0 0 0 -2.480469 -7.949219l3.214844-5.568359c-0.922498-1.0055641-1.942254-1.9158595-3.052734-2.7148439zm-25.199219 1.4980469c-1.0055641 0.922498-1.9158595 1.942254-2.7148439 3.052734l5.2343749 3.021485 3.521485 2.033203a10 10 0 0 1 7.476562 -3.373047 10 10 0 0 1 3.162109 0.523438l2.03125-3.517579a14 14 0 0 0 -5.193359 -1.005859 14 14 0 0 0 -7.949219 2.480469l-5.568359-3.214844zm0.523437 9.541016a14 14 0 0 0 -1.005859 5.193359 14 14 0 0 0 2.480469 7.949219l-3.214844 5.568359c0.922498 1.005564 1.942254 1.91586 3.052734 2.714844l3.021485-5.234375 2.033203-3.521485a10 10 0 0 1 -3.373047 -7.476562 10 10 0 0 1 0.523438 -3.162109l-3.517579-2.03125zm20.470703 11.820312a10 10 0 0 1 -7.476562 3.373047 10 10 0 0 1 -3.162109 -0.523438l-2.03125 3.517579a14 14 0 0 0 5.193359 1.005859 14 14 0 0 0 7.949219 -2.480469l5.568359 3.214844c1.005564-0.922498 1.91586-1.942254 2.714844-3.052734l-5.234375-3.021485-3.521485-2.033203z" style="fill:#5286fe"/>
 <path d="m24 4c11.07 0 19.982 8.92 19.982 20 0 0.16787-8e-3 0.33314-0.01169 0.5-0.264-10.846-9.068-19.5-19.97-19.5s-19.706 8.654-19.97 19.5c-4e-3 -0.16686-0.011689-0.33213-0.011689-0.5 0-11.08 8.9119-20 19.982-20z" fill="#fff" style="opacity:.1"/>
 <circle cx="24" cy="25" r="6" style="opacity:.2"/>
 <circle cx="24" cy="24" r="6" style="fill:#f5ca4a"/>
</svg>

<svg xmlns="http://www.w3.org/2000/svg" width="48" height="48" version="1">
 <path opacity=".2" d="m4.0118 24.5c-0.0041 0.167-0.0117 0.332-0.0117 0.5 0 11.08 8.92 20 20 20s20-8.92 20-20c0-0.168-0.008-0.333-0.012-0.5-0.264 10.846-9.076 19.5-19.988 19.5s-19.724-8.654-19.988-19.5z"/>
 <path style="fill:#154277" d="m24 4c-11.08 0-20 8.92-20 20s8.92 20 20 20 20-8.92 20-20-8.92-20-20-20z"/>
 <path style="opacity:0.2" d="M 35.681641 8.7675781 L 32.660156 14.001953 L 30.626953 17.523438 A 10 10 0 0 1 34 25 A 10 10 0 0 1 33.476562 28.162109 L 36.994141 30.193359 A 14 14 0 0 0 38 25 A 14 14 0 0 0 35.519531 17.050781 L 38.734375 11.482422 C 37.811877 10.476858 36.792121 9.5665625 35.681641 8.7675781 z M 10.482422 10.265625 C 9.4768578 11.188123 8.5665625 12.207879 7.7675781 13.318359 L 13.001953 16.339844 L 16.523438 18.373047 A 10 10 0 0 1 24 15 A 10 10 0 0 1 27.162109 15.523438 L 29.193359 12.005859 A 14 14 0 0 0 24 11 A 14 14 0 0 0 16.050781 13.480469 L 10.482422 10.265625 z M 11.005859 19.806641 A 14 14 0 0 0 10 25 A 14 14 0 0 0 12.480469 32.949219 L 9.6191406 37.904297 C 10.562547 38.88007 11.597216 39.765843 12.722656 40.533203 L 15.339844 35.998047 L 17.373047 32.476562 A 10 10 0 0 1 14 25 A 10 10 0 0 1 14.523438 21.837891 L 11.005859 19.806641 z M 31.476562 31.626953 A 10 10 0 0 1 24 35 A 10 10 0 0 1 20.837891 34.476562 L 18.806641 37.994141 A 14 14 0 0 0 24 39 A 14 14 0 0 0 31.949219 36.519531 L 36.84375 39.345703 C 37.900798 38.46108 38.855321 37.464165 39.708984 36.380859 L 34.998047 33.660156 L 31.476562 31.626953 z"/>
 <path style="fill:#5286fe" d="M 35.681641 7.7675781 L 32.660156 13.001953 L 30.626953 16.523438 A 10 10 0 0 1 34 24 A 10 10 0 0 1 33.476562 27.162109 L 36.994141 29.193359 A 14 14 0 0 0 38 24 A 14 14 0 0 0 35.519531 16.050781 L 38.734375 10.482422 C 37.811877 9.4768579 36.792121 8.5665625 35.681641 7.7675781 z M 10.482422 9.265625 C 9.4768579 10.188123 8.5665625 11.207879 7.7675781 12.318359 L 13.001953 15.339844 L 16.523438 17.373047 A 10 10 0 0 1 24 14 A 10 10 0 0 1 27.162109 14.523438 L 29.193359 11.005859 A 14 14 0 0 0 24 10 A 14 14 0 0 0 16.050781 12.480469 L 10.482422 9.265625 z M 11.005859 18.806641 A 14 14 0 0 0 10 24 A 14 14 0 0 0 12.480469 31.949219 L 9.265625 37.517578 C 10.188123 38.523142 11.207879 39.433438 12.318359 40.232422 L 15.339844 34.998047 L 17.373047 31.476562 A 10 10 0 0 1 14 24 A 10 10 0 0 1 14.523438 20.837891 L 11.005859 18.806641 z M 31.476562 30.626953 A 10 10 0 0 1 24 34 A 10 10 0 0 1 20.837891 33.476562 L 18.806641 36.994141 A 14 14 0 0 0 24 38 A 14 14 0 0 0 31.949219 35.519531 L 37.517578 38.734375 C 38.523142 37.811877 39.433438 36.792121 40.232422 35.681641 L 34.998047 32.660156 L 31.476562 30.626953 z"/>
 <path fill="#fff" style="opacity:0.1" d="m24 4c11.07 0 19.982 8.92 19.982 20 0 0.16787-0.008 0.33314-0.01169 0.5-0.264-10.846-9.068-19.5-19.97-19.5s-19.706 8.654-19.97 19.5c-0.004-0.16686-0.011689-0.33213-0.011689-0.5 0-11.08 8.9119-20 19.982-20z"/>
 <circle style="opacity:0.2" cx="24" cy="25" r="6"/>
 <circle style="fill:#f5ca4a" cx="24" cy="24" r="6"/>
</svg>
